X:208
T: DER MEERESFLUTH MIT PURPURGLUTH
N: F0355
O: Europa, Mitteleuropa, Deutschland
R: Jugend - Lied, Tageszeiten, Morgen
M: 6/4
L: 1/4
K: G
D | G2AB2A | c2BA2
A | B^cdeg=c | d2z3
D | A2Bc2A | d2cB2
e | dgBdcA | G2z3

